X: 26547
T: Micho Russel's Beauty Spot
R: reel
M: 4/4
K: Dmajor
ABAG FGAB|=c2 dc BGGB|ABAG FGAg|fdec dcdB:|
f2 df efge|fAdf ecAg|f2 df efge|afge d3 e|
f2 df efge|fAdf ecAG|ABcd efge|afge fd d2||

